X: 1
T: Balmaha
T: 8 x 32S 3C (Derek Haynes, Carnforth Colln.)
P: Allan Bruce's Strathspey
C: Angus Cameron
C: from Angus Cameron recording (Glendaruel Scottish Dance Band)
C: arr. T. Traub 5-6-97
M: 4/4
L: 1/8
K: Bb
R: strathspey
F>E|"Bb"D<B,B,>D F>D!beambr1!F<B|"Bb"d>f"F"e>c "Bb"d<BB>d|"Eb"e>G!beambr1!c<e "Bb"d>G!beambr1!B<d|"C"(3cdB (3ABG "F"(3FGE (3DEC|"Bb"D<B,B,>D F>D!beambr1!F<B|
"Bb"d>f"F"e>c "Bb"d<BB>A|"Eb"(3Gcd (3edc "Bb"FBc (3dcB|"F"(3AGF (3edc "Bb"d<BB>c||"Bb"d<BB>d "F"c<FF>A|"Gm"B>c"Eb"B>G "Bb"F<B,D<F|
"Eb"E>FG>E "Bb"D>FB>d|"C"(3cdc (3BAG "F"A<FF>c|"Bb"d<BB>d "F"c<FF>A|"Gm"B>c"Eb"B>G "Bb"F<B,D>F|"Eb"(3EGB (3edc "Bb"(3FBc (3dcB|"F"(3AGF (3edc "Bb"d<B B |]

